frontend/public/svg/logos/dribbble.svg

<svg width="183" height="178" viewBox="0 0 183 178" fill="none" xmlns="http://www.w3.org/2000/svg">
<g clip-path="url(#clip0)">
<path d="M9.89098 131.302C15.7324 145.074 23.5586 153.958 34.5161 159.262C36.008 159.984 37.494 160.72 38.9793 161.456C42.6679 163.284 46.4825 165.173 50.3385 166.812C66.8635 173.834 81.683 177.259 95.9295 177.259C101.034 177.259 106.129 176.816 111.156 175.933C136.364 171.52 155.675 158.968 168.555 138.627C175.38 127.842 179.498 115.474 181.506 99.7063C184.529 75.958 178.113 53.2626 162.437 32.2512C151.811 18.0087 136.366 8.60549 115.221 3.50378C103.134 0.585046 90.136 0.00270259 75.4839 1.71968C59.0756 3.64275 45.1816 9.556 33.0098 19.7982C24.1356 27.1892 16.3992 35.8478 10.0498 45.495C2.89575 56.4867 0.139118 69.1636 0.839433 87.8778C-0.335414 100.384 2.45666 113.779 9.89098 131.302ZM132.633 19.2959C148.245 27.4345 159.367 39.5654 165.69 55.3615C166.003 56.1438 166.318 56.9252 166.634 57.7049C169.373 64.477 172.192 71.4615 172.894 78.8997C170.896 78.4344 168.856 78.164 166.805 78.0931C156.597 77.5227 145.91 78.4462 133.177 80.9954C128.355 81.9602 123.463 83.0911 118.737 84.1846C116.72 84.6512 114.692 85.1159 112.655 85.5799L100.217 63.8712C100.516 63.5496 100.809 63.2299 101.097 62.9123C101.934 61.9934 102.725 61.1308 103.578 60.3347C113.489 51.1026 121.077 39.2223 127.455 22.9478C128.129 21.1392 128.502 19.2324 128.559 17.3032C129.927 17.9324 131.285 18.5967 132.633 19.2959ZM132.804 158.621C132.763 157.089 132.622 155.567 132.464 154.111C130.364 134.839 126.18 118.183 119.665 103.191C119.053 101.703 118.524 100.182 118.08 98.6345C117.921 98.116 117.763 97.6001 117.599 97.0908C127.889 92.6691 154.432 88.9522 167.541 91.2664C167.809 91.3137 168.079 91.3662 168.348 91.4181C169.439 91.6747 170.556 91.7987 171.677 91.7876C172.157 91.7633 172.634 91.6944 173.102 91.5828C172.605 108.385 168.981 121.428 161.721 132.924C154.781 144.115 144.733 153.044 132.804 158.621ZM33.3545 146.724C27.0339 142.812 22.0609 136.944 18.5731 129.28C11.5312 113.808 8.47466 100.239 8.95379 86.5769C9.12509 84.6539 9.26942 82.7268 9.41316 80.8011C9.41776 80.7401 9.42301 80.6778 9.4276 80.6167C10.2523 80.9469 11.094 81.233 11.9493 81.4732C36.8212 88.4757 61.3584 85.8805 84.8866 73.7541C86.3404 73.0052 87.7922 72.2497 89.3845 71.4201L91.2268 70.4619C95.4241 77.0909 98.7839 82.9382 101.405 89.5088C100.88 89.7451 100.381 89.9682 99.895 90.1868C98.566 90.7834 97.3097 91.3472 96.0942 91.9379C94.4533 92.734 92.7994 93.5131 91.148 94.2915C87.1739 96.1641 83.0652 98.0983 79.1587 100.273C63.0828 109.178 49.353 121.776 39.1007 137.028C37.0544 140.193 35.2748 143.523 33.7804 146.983C33.6399 146.896 33.4975 146.812 33.3545 146.724ZM40.9351 150.996C41.5015 150.126 42.0561 149.247 42.6107 148.367C43.9451 146.252 45.3241 144.067 46.8468 142.061C60.7612 123.745 79.4212 110.097 102.316 101.499C103.26 101.173 104.225 100.909 105.204 100.712C105.557 100.631 105.919 100.548 106.292 100.459C111.702 114.292 117.245 128.594 119.275 143.765C119.441 145.005 119.605 146.246 119.766 147.486C120.381 152.181 121.018 157.035 121.831 161.785C121.886 162.104 121.957 162.41 122.035 162.708C118.42 163.779 114.741 164.619 111.019 165.224C87.9871 169.003 64.959 164.384 40.857 151.113L40.9351 150.996ZM116.976 17.4622L116.919 17.6714C114.796 25.5422 110.973 33.2556 104.526 42.678C101.456 47.1403 97.7462 51.1263 93.5148 54.5078C92.718 53.4695 91.937 52.4478 91.171 51.4427C89.246 48.9197 87.4266 46.5365 85.5442 44.1573C76.0857 32.2119 68.0817 23.7454 59.5928 16.6937C58.8204 16.0576 58.0051 15.4754 57.1526 14.9516C61.9872 13.0455 67.0165 11.677 72.1503 10.8706C89.1725 8.15006 104.508 8.99332 118.614 13.461C117.819 14.6785 117.263 16.0365 116.976 17.4622ZM49.4563 19.5395C51.5107 21.6529 53.6674 23.7288 55.7532 25.7366C58.5873 28.4663 61.5179 31.2877 64.2142 34.2216C71.9344 42.5766 78.8857 51.6107 84.9837 61.2141C84.4586 61.5573 83.971 61.8784 83.5155 62.1797C82.3787 62.9331 81.3968 63.5844 80.3998 64.1279C60.0293 75.2236 37.8096 78.2788 14.3606 73.2073C12.8819 72.887 11.4957 72.6127 10.1325 72.4282C10.2907 70.9069 10.4607 69.3874 10.6805 67.8857C11.9565 59.0626 14.805 52.1273 19.3908 46.6862C24.4971 40.6249 30.5006 33.646 37.1388 27.5309C40.7288 24.216 44.6839 21.3199 48.928 18.8983C49.0892 19.1239 49.2657 19.3382 49.4563 19.5395Z" fill="black"/>
</g>
<defs>
<clipPath id="clip0">
<rect width="182.462" height="177.211" fill="white" transform="translate(0.00720215 0.483643)"/>
</clipPath>
</defs>
</svg>

<svg xmlns="http://www.w3.org/2000/svg" width="183" height="178" fill="none" viewBox="0 0 183 178"><g clip-path="url(#a)"><path fill="#000" d="M9.891 131.302c5.841 13.772 13.668 22.656 24.625 27.96a533 533 0 0 1 4.463 2.194c3.689 1.828 7.504 3.717 11.36 5.356 16.525 7.022 31.344 10.447 45.59 10.447 5.105 0 10.2-.443 15.227-1.326 25.208-4.413 44.519-16.965 57.399-37.306 6.825-10.785 10.943-23.153 12.951-38.92 3.023-23.749-3.393-46.444-19.069-67.456-10.626-14.242-26.071-23.646-47.216-28.747C103.134.585 90.136.003 75.484 1.72 59.076 3.643 45.182 9.556 33.01 19.798a117.5 117.5 0 0 0-22.96 25.697C2.896 56.487.14 69.164.84 87.878c-1.175 12.506 1.617 25.901 9.051 43.424M132.633 19.296c15.612 8.139 26.734 20.27 33.057 36.066q.47 1.173.944 2.343c2.739 6.772 5.558 13.757 6.26 21.195a31.7 31.7 0 0 0-6.089-.807c-10.208-.57-20.895.353-33.628 2.902-4.822.965-9.714 2.096-14.44 3.19a1853 1853 0 0 1-6.082 1.395l-12.438-21.71q.448-.482.88-.959c.837-.919 1.628-1.781 2.481-2.577 9.911-9.232 17.499-21.113 23.877-37.387a17.7 17.7 0 0 0 1.104-5.645 96 96 0 0 1 4.074 1.993m.171 139.325c-.041-1.532-.182-3.054-.34-4.51-2.1-19.272-6.284-35.928-12.799-50.92a44 44 0 0 1-1.585-4.556q-.237-.78-.481-1.544c10.29-4.422 36.833-8.139 49.942-5.825q.403.073.807.152a14 14 0 0 0 3.329.37q.721-.038 1.425-.205c-.497 16.802-4.121 29.845-11.381 41.341a67.83 67.83 0 0 1-28.917 25.697m-99.45-11.897c-6.32-3.912-11.293-9.78-14.78-17.444-7.043-15.472-10.1-29.041-9.62-42.703.171-1.923.315-3.85.46-5.776l.014-.184q1.237.495 2.521.856c24.872 7.003 49.41 4.407 72.938-7.719a1091 1091 0 0 0 4.498-2.334l1.842-.958c4.197 6.629 7.557 12.476 10.178 19.047l-1.51.678a138 138 0 0 0-3.8 1.75c-1.642.797-3.296 1.576-4.947 2.355-3.974 1.872-8.083 3.806-11.99 5.981a116 116 0 0 0-40.057 36.755 68 68 0 0 0-5.32 9.955zm7.581 4.272a211 211 0 0 0 1.676-2.629c1.334-2.115 2.713-4.3 4.236-6.306 13.914-18.316 32.574-31.964 55.469-40.562a22 22 0 0 1 2.888-.787q.529-.12 1.088-.253c5.41 13.833 10.953 28.135 12.983 43.306q.25 1.86.491 3.721c.615 4.695 1.252 9.549 2.065 14.299.055.319.126.625.204.923a89 89 0 0 1-11.016 2.516c-23.032 3.779-46.06-.84-70.162-14.111zm76.041-133.534-.057.21c-2.123 7.87-5.946 15.584-12.393 25.006a55.2 55.2 0 0 1-11.011 11.83q-1.195-1.558-2.344-3.065c-1.925-2.523-3.744-4.907-5.627-7.286-9.458-11.945-17.462-20.412-25.951-27.463a22 22 0 0 0-2.44-1.742A71 71 0 0 1 72.15 10.87c17.022-2.72 32.358-1.878 46.464 2.59a11.5 11.5 0 0 0-1.638 4.001m-67.52 2.078c2.055 2.113 4.211 4.189 6.297 6.197 2.834 2.73 5.765 5.55 8.461 8.485a189.3 189.3 0 0 1 20.77 26.992q-.787.514-1.468.966c-1.137.753-2.12 1.404-3.116 1.948-20.37 11.096-42.59 14.15-66.04 9.08-1.478-.321-2.864-.595-4.227-.78.158-1.521.328-3.04.548-4.542 1.276-8.823 4.124-15.759 8.71-21.2 5.106-6.061 11.11-13.04 17.748-19.155a64.5 64.5 0 0 1 11.789-8.633q.242.339.528.642"/></g><defs><clipPath id="a"><path fill="#fff" d="M.007.484H182.47v177.21H.007z"/></clipPath></defs></svg>
